src/actions/24/tools-media-optical-erase.svg

<svg xmlns="http://www.w3.org/2000/svg" viewBox="0 0 24 24">
  <defs id="defs3051">
    <style type="text/css" id="current-color-scheme">
      .ColorScheme-Text {
        color:#2e3440;
      }
      </style>
  </defs>
 <path style="fill:currentColor;fill-opacity:1;stroke:none" 
     d="M 12 4 C 7.568 4 4 7.568 4 12 C 4 16.432 7.568 20 12 20 C 12.339398 20 12.672624 19.976444 13 19.933594 L 13 18.925781 C 12.67354 18.973393 12.340107 19 12 19 C 8.122 19 5 15.878 5 12 C 5 8.122 8.122 5 12 5 C 15.878 5 19 8.122 19 12 C 19 12.696167 18.894565 13.366247 18.707031 14 L 19.740234 14 C 19.903948 13.360349 20 12.692084 20 12 C 20 7.568 16.432 4 12 4 z M 12 6 C 8.676004 6 6 8.676 6 12 L 9 12 C 9 10.338 10.338002 9 12 9 L 12 6 z M 12 10 C 10.892001 10 10 10.892 10 12 C 10 13.108 10.892001 14 12 14 C 13.107999 14 14 13.108 14 12 C 14 10.892 13.107999 10 12 10 z M 12 11 C 12.553999 11 13 11.446 13 12 C 13 12.554 12.553999 13 12 13 C 11.446001 13 11 12.554 11 12 C 11 11.446 11.446001 11 12 11 z M 15 12 C 15 12.352948 14.93127 12.687647 14.818359 13 L 17.910156 13 C 17.966308 12.675132 18 12.341682 18 12 L 15 12 z M 13 14.818359 C 12.687647 14.931268 12.352947 15 12 15 L 12 18 C 12.341682 18 12.675132 17.966306 13 17.910156 L 13 14.818359 z M 16 16 L 14 18 L 16 20 L 20 20 L 20 16 L 16 16 z M 16.599609 17 L 19 17 L 19 19 L 16.599609 19 L 15.599609 18 L 16.599609 17 z "
     class="ColorScheme-Text"
     />
</svg>

<svg viewBox="0 0 24 24" xmlns="http://www.w3.org/2000/svg">
 <defs>
  <style type="text/css">.ColorScheme-Text {
        color:#2e3440;
      }</style>
 </defs>
 <path class="ColorScheme-Text" d="m12 4c-4.432 0-8 3.568-8 8s3.568 8 8 8c0.3394 0 0.67262-0.023556 1-0.066406v-1.0078c-0.32646 0.047612-0.65989 0.074219-1 0.074219-3.878 0-7-3.122-7-7s3.122-7 7-7 7 3.122 7 7c0 0.69617-0.10544 1.3662-0.29297 2h1.0332c0.16371-0.63965 0.25977-1.3079 0.25977-2 0-4.432-3.568-8-8-8zm0 2c-3.324 0-6 2.676-6 6h3c0-1.662 1.338-3 3-3v-3zm0 4c-1.108 0-2 0.892-2 2s0.892 2 2 2 2-0.892 2-2-0.892-2-2-2zm0 1c0.554 0 1 0.446 1 1s-0.446 1-1 1-1-0.446-1-1 0.446-1 1-1zm3 1c0 0.35295-0.06873 0.68765-0.18164 1h3.0918c0.056152-0.32487 0.089844-0.65832 0.089844-1h-3zm-2 2.8184c-0.31235 0.11291-0.64705 0.18164-1 0.18164v3c0.34168 0 0.67513-0.033694 1-0.089844v-3.0918zm3 1.1816-2 2 2 2h4v-4h-4zm0.59961 1h2.4004v2h-2.4004l-1-1 1-1z" fill="currentColor"/>
</svg>
